X:289
T:Polska efter Brynte Olsson (Kull)
S:efter Brynte Kull
B:EÖ, nr 289
R:Polska
O:Boda, Skillingmarks sn, Värmland
Z:Nils L
L:1/8
M:3/4
%%tuplets 0 0 1
K:D
d>b (b>a) a2 | a>g (g>f) f2 | f>a (3geg (3fdf | (3ece A4 |
d>b (ba) a2 | a>g (gf) f2 | f>a (3geg (3fdf | (3ece d4 ::
((3DFA) ((3DFA) ((3DFA) | !>!d>c B>A !>!G>F | ((3EGB) ((3EGB) ((3EGB) | !>!e>d c>B !>!A>F |
((3DFA) ((3DFA) ((3DFA) | ((3DFA) B>G B>G | e>f (3geg (3fdf | (3ece d3z :|

